actions/16/edit.svg

<?xml version="1.0" encoding="UTF-8" standalone="no"?>
<svg
   xmlns:dc="http://purl.org/dc/elements/1.1/"
   xmlns:cc="http://creativecommons.org/ns#"
   xmlns:rdf="http://www.w3.org/1999/02/22-rdf-syntax-ns#"
   xmlns:svg="http://www.w3.org/2000/svg"
   xmlns="http://www.w3.org/2000/svg"
   xmlns:xlink="http://www.w3.org/1999/xlink"
   version="1.1"
   width="16"
   height="16"
   id="svg8657">
  <defs
     id="defs8659">
    <linearGradient
       id="linearGradient3191-577">
      <stop
         id="stop2613"
         style="stop-color:#dbce48;stop-opacity:1"
         offset="0" />
      <stop
         id="stop2615"
         style="stop-color:#c5b625;stop-opacity:1"
         offset="1" />
    </linearGradient>
    <linearGradient
       x1="5.5178981"
       y1="37.371799"
       x2="9.5220556"
       y2="41.391716"
       id="linearGradient8655"
       xlink:href="#linearGradient3191-577"
       gradientUnits="userSpaceOnUse"
       gradientTransform="matrix(0.3763801,0.03615261,0.03669995,0.374874,-2.2182805,-1.1331002)" />
    <linearGradient
       id="linearGradient3290-678">
      <stop
         id="stop2607"
         style="stop-color:#ece5a5;stop-opacity:1"
         offset="0" />
      <stop
         id="stop2609"
         style="stop-color:#fcfbf2;stop-opacity:1"
         offset="1" />
    </linearGradient>
    <linearGradient
       x1="9"
       y1="29.056757"
       x2="9"
       y2="26.02973"
       id="linearGradient8653"
       xlink:href="#linearGradient3290-678"
       gradientUnits="userSpaceOnUse"
       gradientTransform="matrix(0.4040235,-0.4056919,0.6073752,0.602268,-17.636692,0.462492)" />
    <linearGradient
       id="linearGradient3223-699">
      <stop
         id="stop2599"
         style="stop-color:#b1b1b1;stop-opacity:1"
         offset="0" />
      <stop
         id="stop2601"
         style="stop-color:#ffffff;stop-opacity:1"
         offset="0.5" />
      <stop
         id="stop2603"
         style="stop-color:#8f8f8f;stop-opacity:1"
         offset="1" />
    </linearGradient>
    <linearGradient
       x1="30.037716"
       y1="24.989594"
       x2="30.037716"
       y2="30.000141"
       id="linearGradient8651"
       xlink:href="#linearGradient3223-699"
       gradientUnits="userSpaceOnUse"
       gradientTransform="matrix(0.4040235,-0.4056919,0.6073752,0.6022679,-17.177369,-2.1969969e-4)" />
    <linearGradient
       id="linearGradient3240-907">
      <stop
         id="stop2591"
         style="stop-color:#565656;stop-opacity:1"
         offset="0" />
      <stop
         id="stop2593"
         style="stop-color:#9a9a9a;stop-opacity:1"
         offset="0.5" />
      <stop
         id="stop2595"
         style="stop-color:#545454;stop-opacity:1"
         offset="1" />
    </linearGradient>
    <linearGradient
       x1="30.037716"
       y1="24.989594"
       x2="30.037716"
       y2="30.000141"
       id="linearGradient8649"
       xlink:href="#linearGradient3240-907"
       gradientUnits="userSpaceOnUse"
       gradientTransform="matrix(0.4040235,-0.4056919,0.6073752,0.6022679,-17.061661,-0.1164056)" />
    <linearGradient
       id="linearGradient3223-768">
      <stop
         id="stop2583"
         style="stop-color:#b1b1b1;stop-opacity:1"
         offset="0" />
      <stop
         id="stop2585"
         style="stop-color:#ffffff;stop-opacity:1"
         offset="0.5" />
      <stop
         id="stop2587"
         style="stop-color:#8f8f8f;stop-opacity:1"
         offset="1" />
    </linearGradient>
    <linearGradient
       x1="30.037716"
       y1="24.989594"
       x2="30.037716"
       y2="30.000141"
       id="linearGradient8647"
       xlink:href="#linearGradient3223-768"
       gradientUnits="userSpaceOnUse"
       gradientTransform="matrix(0.4040235,-0.4056919,0.6073752,0.6022679,-17.581392,0.4054707)" />
    <linearGradient
       id="linearGradient3240-686">
      <stop
         id="stop2575"
         style="stop-color:#565656;stop-opacity:1"
         offset="0" />
      <stop
         id="stop2577"
         style="stop-color:#9a9a9a;stop-opacity:1"
         offset="0.5" />
      <stop
         id="stop2579"
         style="stop-color:#545454;stop-opacity:1"
         offset="1" />
    </linearGradient>
    <linearGradient
       x1="30.037716"
       y1="24.989594"
       x2="30.037716"
       y2="30.000141"
       id="linearGradient8645"
       xlink:href="#linearGradient3240-686"
       gradientUnits="userSpaceOnUse"
       gradientTransform="matrix(0.4040235,-0.4056919,0.6073752,0.6022679,-17.465684,0.2892868)" />
    <linearGradient
       id="linearGradient3223-789">
      <stop
         id="stop2567"
         style="stop-color:#b1b1b1;stop-opacity:1"
         offset="0" />
      <stop
         id="stop2569"
         style="stop-color:#ffffff;stop-opacity:1"
         offset="0.5" />
      <stop
         id="stop2571"
         style="stop-color:#8f8f8f;stop-opacity:1"
         offset="1" />
    </linearGradient>
    <linearGradient
       x1="30.037716"
       y1="24.989594"
       x2="30.037716"
       y2="30.000141"
       id="linearGradient8643"
       xlink:href="#linearGradient3223-789"
       gradientUnits="userSpaceOnUse"
       gradientTransform="matrix(0.4040235,-0.4056919,0.6073752,0.6022679,-17.983472,0.8092126)" />
    <linearGradient
       id="linearGradient3240-279">
      <stop
         id="stop2559"
         style="stop-color:#565656;stop-opacity:1"
         offset="0" />
      <stop
         id="stop2561"
         style="stop-color:#9a9a9a;stop-opacity:1"
         offset="0.5" />
      <stop
         id="stop2563"
         style="stop-color:#545454;stop-opacity:1"
         offset="1" />
    </linearGradient>
    <linearGradient
       x1="30.037716"
       y1="24.989594"
       x2="30.037716"
       y2="30.000141"
       id="linearGradient8641"
       xlink:href="#linearGradient3240-279"
       gradientUnits="userSpaceOnUse"
       gradientTransform="matrix(0.4040235,-0.4056919,0.6073752,0.6022679,-17.867764,0.6930272)" />
    <linearGradient
       id="linearGradient3155-40">
      <stop
         id="stop2541"
         style="stop-color:#181818;stop-opacity:1"
         offset="0" />
      <stop
         id="stop2543"
         style="stop-color:#dbdbdb;stop-opacity:1"
         offset="0.13482948" />
      <stop
         id="stop2545"
         style="stop-color:#a4a4a4;stop-opacity:1"
         offset="0.20224422" />
      <stop
         id="stop2547"
         style="stop-color:#ffffff;stop-opacity:1"
         offset="0.26965895" />
      <stop
         id="stop2549"
         style="stop-color:#8d8d8d;stop-opacity:1"
         offset="0.44650277" />
      <stop
         id="stop2551"
         style="stop-color:#959595;stop-opacity:1"
         offset="0.57114136" />
      <stop
         id="stop2553"
         style="stop-color:#cecece;stop-opacity:1"
         offset="0.72038066" />
      <stop
         id="stop2555"
         style="stop-color:#181818;stop-opacity:1"
         offset="1" />
    </linearGradient>
    <linearGradient
       x1="23.575972"
       y1="25.356892"
       x2="23.575972"
       y2="31.210939"
       id="linearGradient8639"
       xlink:href="#linearGradient3155-40"
       gradientUnits="userSpaceOnUse"
       gradientTransform="matrix(0.415777,-0.4174938,0.518983,0.5146192,-15.747227,2.6503673)"
       spreadMethod="pad" />
  </defs>
  <metadata
     id="metadata8662">
    <rdf:RDF>
      <cc:Work
         rdf:about="">
        <dc:format>image/svg+xml</dc:format>
        <dc:type
           rdf:resource="http://purl.org/dc/dcmitype/StillImage" />
      </cc:Work>
    </rdf:RDF>
  </metadata>
  <g
     id="layer1">
    <path
       d="m 13.219868,12.085402 c -0.135595,-0.02111 -0.239457,-0.01225 -0.307686,0.003 l -9.0874927,2.017202 -1.6724992,0.372194 -0.051633,0.008 -1.9387153,1.432663 4.9498341,-0.07402 0.040722,-0.0095 1.6834123,-0.370698 9.0845618,-2.03263 c 0.272911,-0.06092 -0.177299,-0.409927 -1.009983,-0.78431 -0.624515,-0.280788 -1.283742,-0.498541 -1.690521,-0.561884 z"
       id="path2422"
       style="opacity:0.15;fill:#0c0c0c;fill-opacity:1;fill-rule:evenodd;stroke:none" />
    <g
       transform="matrix(1.030012,0,0,1.0325071,-0.016773,-0.5215254)"
       id="g8626">
      <path
         d="m 2.0488085,11.037368 c 0.2865424,-0.207707 1.1479509,0.256388 1.9603385,1.061945 0.8104458,0.803629 1.2601996,1.641331 1.0575577,1.930575 -7.708e-4,0.0011 0.01977,0.01774 0.01898,0.01882 L 15.224149,3.8683779 C 15.481557,3.6099071 15.011041,2.7247557 14.172862,1.893626 13.334685,1.0624962 12.444681,0.59856571 12.187272,0.85703737 L 2.0488085,11.037368 z"
         id="rect2383"
         style="fill:url(#linearGradient8639);fill-opacity:1;stroke:#0c0c0c;stroke-width:0.48484433;stroke-linecap:butt;stroke-linejoin:round;stroke-miterlimit:4;stroke-opacity:1;stroke-dasharray:none;stroke-dashoffset:0" />
      <path
         d="m 10.565423,2.4840909 c 0.286542,-0.2077065 1.147951,0.2563879 1.960338,1.0619443 0.810445,0.8036291 1.260199,1.6413295 1.057557,1.9305744 -7.69e-4,0.0011 0.01977,0.017738 0.01898,0.018821 L 15.154234,3.9383089 C 15.562715,3.5297289 15.124956,2.8454879 14.172862,1.893626 13.360476,1.0880699 12.499066,0.6239749 12.212525,0.83168148 l -0.02525,0.0253559 -1.621849,1.62705352 z"
         id="rect3175"
         style="opacity:0.8;fill:#ffb6ed;fill-opacity:1;stroke:#e28ccd;stroke-width:0.48484433;stroke-linecap:butt;stroke-linejoin:round;stroke-miterlimit:4;stroke-opacity:1;stroke-dasharray:none;stroke-dashoffset:0" />
      <path
         d="m 2.0488079,11.037368 c 0.286543,-0.207708 1.1479512,0.256388 1.960339,1.061943 0.8104449,0.80363 1.2601992,1.641332 1.0575579,1.930577 -7.714e-4,0.0011 0.01977,0.01774 0.01898,0.01882 l 6.9820302,-7.0108637 0.02525,-0.025356 c 7.9e-4,-0.00108 -0.01975,-0.01772 -0.01898,-0.01882 C 12.276628,6.7044221 11.826873,5.8667226 11.01643,5.0630931 10.204041,4.2575368 9.3426319,3.7934425 9.0560897,4.0011493 l -0.025251,0.025355 -6.9820304,7.0108637 z"
         id="path3208"
         style="opacity:0.6;fill:#0c0c0c;fill-opacity:1;stroke:none" />
      <path
         d="m 9.1785348,3.8767048 c 0.2865413,-0.2077068 1.1479522,0.2563879 1.9603392,1.0619443 0.810445,0.8036291 1.2602,1.6413294 1.057556,1.9305753 -7.71e-4,0.0011 0.01977,0.017736 0.01898,0.01882 l 0.126256,-0.1267795 c 7.9e-4,-0.00108 -0.01975,-0.01772 -0.01898,-0.01882 C 12.525331,6.4531992 12.075576,5.6154986 11.26513,4.8118704 10.452743,4.0063135 9.5913335,3.542219 9.3047918,3.7499256 l -0.126257,0.1267792 z"
         id="path3233"
         style="fill:url(#linearGradient8641);fill-opacity:1;stroke:none" />
      <path
         d="m 9.0628273,3.9928895 c 0.2865436,-0.2077068 1.1479527,0.2563878 1.9603397,1.061944 0.810444,0.8036294 1.2602,1.6413292 1.057556,1.9305742 -7.71e-4,0.0011 0.01977,0.017738 0.01898,0.018822 L 12.22596,6.8774498 c 7.9e-4,-0.00108 -0.01975,-0.017721 -0.01898,-0.018821 C 12.409623,6.569384 11.95987,5.7316836 11.149423,4.9280545 10.337036,4.1224982 9.4756273,3.6584033 9.1890844,3.8661101 L 9.0628273,3.9928895 z"
         id="path3216"
         style="fill:url(#linearGradient8643);fill-opacity:1;stroke:none" />
      <path
         d="m 9.5806143,3.4729643 c 0.2865426,-0.2077069 1.1479517,0.2563872 1.9603387,1.0619442 0.810446,0.803629 1.2602,1.6413292 1.057558,1.9305747 -7.73e-4,0.0011 0.01977,0.017737 0.01898,0.01882 l 0.126258,-0.1267784 c 7.91e-4,-0.00108 -0.01975,-0.017721 -0.01898,-0.01882 C 12.927411,6.0494594 12.477656,5.2117588 11.66721,4.4081298 10.854824,3.6025731 9.9934151,3.1384786 9.7068717,3.3461854 L 9.5806143,3.4729643 z"
         id="path3248"
         style="fill:url(#linearGradient8645);fill-opacity:1;stroke:none" />
      <path
         d="m 9.4649071,3.5891488 c 0.2865435,-0.207707 1.1479529,0.2563877 1.9603379,1.061944 0.810447,0.8036298 1.260201,1.6413294 1.057558,1.9305748 -7.69e-4,0.0011 0.01977,0.017737 0.01898,0.018821 l 0.126257,-0.12678 c 7.9e-4,-0.00108 -0.01975,-0.01772 -0.01898,-0.01882 C 12.811705,6.1656438 12.361949,5.3279425 11.551504,4.5243147 10.739118,3.718758 9.877708,3.254663 9.5911645,3.46237 L 9.4649071,3.5891488 z"
         id="path3250"
         style="fill:url(#linearGradient8647);fill-opacity:1;stroke:none" />
      <path
         d="M 9.9846388,3.0672723 C 10.27118,2.8595657 11.13259,3.3236601 11.944976,4.1292168 c 0.810446,0.8036288 1.260201,1.641329 1.057558,1.9305741 -7.7e-4,0.0011 0.01977,0.017738 0.01898,0.018821 L 13.14777,5.9518328 c 7.92e-4,-0.00108 -0.01975,-0.017721 -0.01898,-0.018821 C 13.331434,5.6437674 12.881679,4.8060668 12.071233,4.0024374 11.258848,3.1968815 10.397438,2.7327869 10.110895,2.9404937 L 9.9846388,3.0672723 z"
         id="path3256"
         style="fill:url(#linearGradient8649);fill-opacity:1;stroke:none" />
      <path
         d="m 9.8689318,3.1834569 c 0.2865412,-0.2077072 1.1479512,0.2563879 1.9603392,1.0619447 0.810444,0.8036283 1.260198,1.6413291 1.057556,1.9305739 -7.71e-4,0.0011 0.01977,0.017737 0.01898,0.018821 l 0.126258,-0.1267782 c 7.89e-4,-0.00108 -0.01975,-0.017722 -0.01898,-0.018821 C 13.215727,5.7599515 12.765972,4.9222512 11.955527,4.1186224 11.143141,3.313066 10.281731,2.848971 9.9951884,3.0566783 L 9.8689318,3.1834569 z"
         id="path3258"
         style="fill:url(#linearGradient8651);fill-opacity:1;stroke:none" />
      <path
         d="m 0.25980529,15.79419 4.77185621,-1.725488 0.039308,-0.03926 C 5.2736124,13.740202 4.8185731,12.902156 4.0081274,12.098526 3.1957395,11.29297 2.335449,10.831246 2.0489062,11.038953 L 0.25980529,15.79419 z"
         id="path3270"
         style="fill:url(#linearGradient8653);fill-opacity:1;fill-rule:evenodd;stroke:url(#linearGradient8655);stroke-width:0.48484433;stroke-linecap:butt;stroke-linejoin:miter;stroke-miterlimit:4;stroke-opacity:1;stroke-dasharray:none" />
      <path
         d="M 0.7444326,14.506276 0.25922075,15.788967 1.560593,15.315574 C 1.446907,15.182439 1.3413094,15.047739 1.2062351,14.913801 1.0507282,14.759602 0.89915498,14.633134 0.7444326,14.506276 z"
         id="path3281"
         style="fill:#0c0c0c;fill-opacity:1;fill-rule:evenodd;stroke:#0c0c0c;stroke-width:0.48484433;stroke-linecap:butt;stroke-linejoin:miter;stroke-miterlimit:4;stroke-opacity:1;stroke-dasharray:none" />
    </g>
  </g>
</svg>

<svg xmlns="http://www.w3.org/2000/svg" xmlns:xlink="http://www.w3.org/1999/xlink" viewBox="0 0 16 16"><defs><linearGradient id="a"><stop offset="0" stop-color="#dbce48"/><stop offset="1" stop-color="#c5b625"/></linearGradient><linearGradient x1="5.518" y1="37.372" x2="9.522" y2="41.392" id="r" xlink:href="#a" gradientUnits="userSpaceOnUse" gradientTransform="matrix(.37638 .03615 .0367 .37487 -2.218 -1.133)"/><linearGradient id="b"><stop offset="0" stop-color="#ece5a5"/><stop offset="1" stop-color="#fcfbf2"/></linearGradient><linearGradient x1="9" y1="29.057" x2="9" y2="26.03" id="q" xlink:href="#b" gradientUnits="userSpaceOnUse" gradientTransform="matrix(.40402 -.4057 .60738 .60227 -17.637 .462)"/><linearGradient id="c"><stop offset="0" stop-color="#b1b1b1"/><stop offset=".5" stop-color="#fff"/><stop offset="1" stop-color="#8f8f8f"/></linearGradient><linearGradient x1="30.038" y1="24.99" x2="30.038" y2="30" id="p" xlink:href="#c" gradientUnits="userSpaceOnUse" gradientTransform="matrix(.40402 -.4057 .60738 .60227 -17.177 0)"/><linearGradient id="d"><stop offset="0" stop-color="#565656"/><stop offset=".5" stop-color="#9a9a9a"/><stop offset="1" stop-color="#545454"/></linearGradient><linearGradient x1="30.038" y1="24.99" x2="30.038" y2="30" id="o" xlink:href="#d" gradientUnits="userSpaceOnUse" gradientTransform="matrix(.40402 -.4057 .60738 .60227 -17.062 -.116)"/><linearGradient id="e"><stop offset="0" stop-color="#b1b1b1"/><stop offset=".5" stop-color="#fff"/><stop offset="1" stop-color="#8f8f8f"/></linearGradient><linearGradient x1="30.038" y1="24.99" x2="30.038" y2="30" id="n" xlink:href="#e" gradientUnits="userSpaceOnUse" gradientTransform="matrix(.40402 -.4057 .60738 .60227 -17.58 .405)"/><linearGradient id="f"><stop offset="0" stop-color="#565656"/><stop offset=".5" stop-color="#9a9a9a"/><stop offset="1" stop-color="#545454"/></linearGradient><linearGradient x1="30.038" y1="24.99" x2="30.038" y2="30" id="m" xlink:href="#f" gradientUnits="userSpaceOnUse" gradientTransform="matrix(.40402 -.4057 .60738 .60227 -17.466 .29)"/><linearGradient id="g"><stop offset="0" stop-color="#b1b1b1"/><stop offset=".5" stop-color="#fff"/><stop offset="1" stop-color="#8f8f8f"/></linearGradient><linearGradient x1="30.038" y1="24.99" x2="30.038" y2="30" id="l" xlink:href="#g" gradientUnits="userSpaceOnUse" gradientTransform="matrix(.40402 -.4057 .60738 .60227 -17.983 .81)"/><linearGradient id="h"><stop offset="0" stop-color="#565656"/><stop offset=".5" stop-color="#9a9a9a"/><stop offset="1" stop-color="#545454"/></linearGradient><linearGradient x1="30.038" y1="24.99" x2="30.038" y2="30" id="k" xlink:href="#h" gradientUnits="userSpaceOnUse" gradientTransform="matrix(.40402 -.4057 .60738 .60227 -17.868 .693)"/><linearGradient id="i"><stop offset="0" stop-color="#181818"/><stop offset=".135" stop-color="#dbdbdb"/><stop offset=".202" stop-color="#a4a4a4"/><stop offset=".27" stop-color="#fff"/><stop offset=".447" stop-color="#8d8d8d"/><stop offset=".571" stop-color="#959595"/><stop offset=".72" stop-color="#cecece"/><stop offset="1" stop-color="#181818"/></linearGradient><linearGradient x1="23.576" y1="25.357" x2="23.576" y2="31.211" id="j" xlink:href="#i" gradientUnits="userSpaceOnUse" gradientTransform="matrix(.41578 -.4175 .51898 .51462 -15.747 2.65)"/></defs><path d="M13.22 12.085a.837.837 0 0 0-.308.003l-9.087 2.018-1.673.372-.05.008-1.94 1.432 4.95-.074.04-.01 1.684-.37 9.084-2.032c.273-.06-.177-.41-1.01-.785-.624-.28-1.283-.498-1.69-.562z" opacity=".15" fill="#0c0c0c" fill-rule="evenodd"/><path d="M2.05 11.037c.285-.207 1.147.257 1.96 1.062.81.8 1.26 1.64 1.057 1.93 0 0 .02.01.02.02L15.223 3.86c.258-.258-.213-1.143-1.05-1.974-.84-.83-1.73-1.295-1.987-1.037L2.05 11.032z" fill="url(#j)" stroke="#0c0c0c" stroke-width=".485" stroke-linejoin="round" transform="matrix(1.03 0 0 1.0325 -.017 -.522)"/><path d="M10.565 2.484c.287-.208 1.148.256 1.96 1.062.81.804 1.26 1.64 1.058 1.93 0 .002.02.018.02.02l1.55-1.558c.41-.408-.028-1.093-.98-2.044-.813-.806-1.674-1.27-1.96-1.062l-.026.025-1.622 1.627z" opacity=".8" fill="#ffb6ed" stroke="#e28ccd" stroke-width=".485" stroke-linejoin="round" transform="matrix(1.03 0 0 1.0325 -.017 -.522)"/><path d="M2.093 10.874c.295-.214 1.183.265 2.02 1.097.834.83 1.297 1.7 1.09 2-.002 0 .02.02.018.02l7.2-7.24.027-.024-.02-.02c.21-.3-.254-1.163-1.09-1.992-.836-.83-1.723-1.31-2.02-1.096l-.024.026-7.192 7.24z" opacity=".6" fill="#0c0c0c"/><path d="M9.18 3.877c.285-.208 1.146.256 1.96 1.062.81.8 1.26 1.64 1.056 1.93l.02.01.126-.127s-.02-.017-.02-.02c.203-.29-.246-1.126-1.057-1.93-.812-.805-1.674-1.27-1.96-1.06l-.126.126z" fill="url(#k)" transform="matrix(1.03 0 0 1.0325 -.017 -.522)"/><path d="M9.063 3.993c.286-.208 1.148.256 1.96 1.062.81.803 1.26 1.64 1.058 1.93 0 .002.02.018.02.02l.13-.128-.02-.018c.208-.29-.242-1.13-1.053-1.94-.812-.806-1.673-1.27-1.96-1.06l-.126.126z" fill="url(#l)" transform="matrix(1.03 0 0 1.0325 -.017 -.522)"/><path d="M9.58 3.473c.287-.208 1.15.256 1.96 1.062.81.804 1.26 1.64 1.06 1.93-.002.002.018.018.017.02l.127-.127c0-.002-.02-.018-.02-.02.203-.29-.246-1.126-1.057-1.93-.812-.805-1.674-1.27-1.96-1.062l-.126.127z" fill="url(#m)" transform="matrix(1.03 0 0 1.0325 -.017 -.522)"/><path d="M9.465 3.59c.286-.21 1.148.256 1.96 1.06.81.805 1.26 1.642 1.058 1.932l.02.018.125-.126s-.02-.018-.02-.02c.204-.288-.246-1.126-1.056-1.93-.813-.805-1.674-1.27-1.96-1.062l-.127.127z" fill="url(#n)" transform="matrix(1.03 0 0 1.0325 -.017 -.522)"/><path d="M9.985 3.067c.286-.207 1.148.257 1.96 1.062.81.8 1.26 1.64 1.058 1.93 0 0 .02.01.02.02l.125-.13-.02-.02c.202-.29-.246-1.13-1.058-1.93-.81-.81-1.67-1.27-1.96-1.06l-.12.12z" fill="url(#o)" transform="matrix(1.03 0 0 1.0325 -.017 -.522)"/><path d="M9.87 3.183c.285-.207 1.147.257 1.96 1.062.81.804 1.26 1.642 1.057 1.93 0 .002.02.02.02.02l.125-.127s-.02-.018-.02-.02c.204-.288-.246-1.126-1.056-1.93-.813-.805-1.674-1.27-1.96-1.06l-.127.125z" fill="url(#p)" transform="matrix(1.03 0 0 1.0325 -.017 -.522)"/><path d="M.26 15.794l4.772-1.725.04-.04c.202-.29-.253-1.13-1.064-1.93-.812-.81-1.673-1.27-1.96-1.06L.26 15.79z" fill="url(#q)" fill-rule="evenodd" stroke="url(#r)" stroke-width=".485" transform="matrix(1.03 0 0 1.0325 -.017 -.522)"/><path d="M.744 14.506L.26 15.79l1.3-.474c-.113-.134-.22-.268-.354-.402a6.33 6.33 0 0 0-.462-.408z" fill="#0c0c0c" fill-rule="evenodd" stroke="#0c0c0c" stroke-width=".485" transform="matrix(1.03 0 0 1.0325 -.017 -.522)"/></svg>
